public/avatar/body/383.svg

<svg height="82" width="84.85" xmlns="http://www.w3.org/2000/svg"><defs><filter id="a" filterUnits="objectBoundingBox" width="1" height="1" x="0" y="0"><feColorMatrix in="SourceGraphic" values="0 0 0 0 0.349 0 0 0 0 0 0 0 0 0 0 0 0 0 1 0" result="colorTrans"/></filter><filter id="b" filterUnits="objectBoundingBox" width="1" height="1" x="0" y="0"><feColorMatrix in="SourceGraphic" values="0 0 0 0 0.102 0 0 0 0 0 0 0 0 0 0 0 0 0 1 0" result="colorTrans"/></filter><filter id="c" filterUnits="objectBoundingBox" width="1.024" height="1.258" x="-.012" y="-.129"><feColorMatrix in="SourceGraphic" values="0 0 0 0 0.102 0 0 0 0 0 0 0 0 0 0 0 0 0 1 0" result="colorTrans"/></filter><filter id="d" filterUnits="objectBoundingBox" width="1" height="1" x="0" y="0"><feColorMatrix in="SourceGraphic" values="0 0 0 0 1 0 0 0 0 1 0 0 0 0 1 0 0 0 1 0" result="colorTrans"/></filter><filter id="e" filterUnits="objectBoundingBox" width="1" height="1" x="0" y="0"><feColorMatrix in="SourceGraphic" values="0 0 0 0 0.349 0 0 0 0 0 0 0 0 0 0 0 0 0 1 0" result="colorTrans"/></filter><filter id="f" filterUnits="objectBoundingBox" width="1" height="1" x="0" y="0"><feColorMatrix in="SourceGraphic" values="0 0 0 0 0.184 0 0 0 0 0 0 0 0 0 0 0 0 0 1 0" result="colorTrans"/></filter><filter id="g" filterUnits="objectBoundingBox" width="1" height="1" x="0" y="0"><feColorMatrix in="SourceGraphic" values="0 0 0 0 0.102 0 0 0 0 0 0 0 0 0 0 0 0 0 1 0" result="colorTrans"/></filter><filter id="h" filterUnits="objectBoundingBox" width="1" height="1" x="0" y="0"><feColorMatrix in="SourceGraphic" values="0 0 0 0 0 0 0 0 0 0 0 0 0 0 0 0 0 0 1 0" result="colorTrans"/></filter><filter id="i" filterUnits="objectBoundingBox" width="1.339" height="1.8" x="-.169" y="-.4"><feColorMatrix in="SourceGraphic" values="0 0 0 0 0.102 0 0 0 0 0 0 0 0 0 0 0 0 0 1 0" result="colorTrans"/></filter><filter id="j" filterUnits="objectBoundingBox" width="1" height="1" x="0" y="0"><feColorMatrix in="SourceGraphic" values="0 0 0 0 0.349 0 0 0 0 0 0 0 0 0 0 0 0 0 1 0" result="colorTrans"/></filter></defs><g style="display:inline" transform="translate(37.4 42.25)"><path fill="red" d="M20.85 15.95q9.6 0 16.25-5.25 5.25-4.1 5.05-6.9Q41.9 0 20.95 0 12.35 0 5.9 1.6-.1 3.1 0 4.8q.15 2.75 4.95 6.4 6.35 4.75 15.9 4.75" style="filter:url(#a)" transform="translate(-16.749 -2.899)"/><path d="m19.7 3.85-13.8-.5L2.95 3 0 2.1Q.35 5 5.35 8.4t17.35 2.65q12.3-.75 15.8-5.4Q42 .95 41.4 0l-3.35 1.6-2.7.75q-5.5.75-15.65 1.5" style="filter:url(#b)" transform="translate(-16.249 .25)"/><path fill="none" stroke="#000" stroke-linecap="round" stroke-linejoin="round" d="M4.101 13.051q9.6 0 16.25-5.25 5.25-4.1 5.05-6.9-.25-3.8-21.2-3.8-8.6 0-15.05 1.6-6 1.5-5.9 3.2.15 2.75 4.95 6.4 6.35 4.75 15.9 4.75"/><path fill="none" stroke="#000" stroke-linecap="round" stroke-linejoin="round" d="M0 1.6q1.2 1.25 9.2 1.75 12.95.8 17.15.4Q41.45 2.25 41.6 0" style="filter:url(#c)" transform="translate(-16.749 .25)"/><path fill="#fff" d="M30.9 16.15q-1.4-4.6-3.55-8.75-2.4-4.55-7.15-6.6-1.804-.749-3.7-.8-.89-.028-1.8.1-4.602 1.2-7.725 4.925-3.121 3.728-4.925 8.65Q.239 18.598.025 23q-.207 4.398 2.3 8.325 2.493 3.927 7.125 5.5 3.426 1.162 7.05 1.15 1.288-.018 2.6-.175 4.95-.85 8.75-4.05 3.85-3.15 4.2-8.1.3-4.8-1.15-9.5" style="filter:url(#d)" transform="translate(-11.949 -17.399)"/><path fill="none" stroke="#000" stroke-linecap="round" stroke-linejoin="round" d="M-9.899-3.724q-1.325 3.602-1.8 6.925m1.8-6.925q1.804-4.922 4.925-8.65 3.123-3.725 7.725-4.925 2.85-.4 5.5.7 4.75 2.05 7.15 6.6 2.15 4.15 3.55 8.75.683 2.214.975 4.45"/><path fill="red" d="M33.45.4q.1 5.25-7.35 7.1h.15q-4.1 1.6-5.4 2.75l-2.4 3.85q-1.15-1.55-2.4-2.75-2.75-2.8-7-3.55Q4.75 7 3.4 4.3 2 1.55 2.35 0-1.35 9.15.8 14.1q1.5 3.35 6.25 5.5 4.85 2.25 11.05 2.25 10.25 0 14.2-4.9Q36.55 11.7 33.45.4" style="filter:url(#e)" transform="translate(-13.699 .55)"/><g style="filter:url(#f)" transform="translate(-12.899 14.65)" fill="#b50000"><path d="M0 0q1.5 3.35 6.25 5.5Q11.1 7.75 17.3 7.75q10.25 0 14.2-4.9.85-.95 1.45-2.65-5.7 4.3-15.55 4.3Q7.5 4.5 0 0"/><path d="M25.5 4.1q-1.6.15-3.75-.25-1.05-.2-2.5-1.2-1.35-.9-2.1-.9-.8 0-1.95.85-1.35.95-2.3 1.25-2 .65-4 .05l-.25-.15Q12.15 6 16 6q3.9 0 9.5-1.9"/></g><g style="filter:url(#g)" transform="translate(-12.249 .55)" fill="#3b0000"><path d="M16.45 11.4h-.15q-.6 0-2.75-1.7-2.35-1.85-5.8-2.55Q2.35 6.1.85 0L0 3.1q0 1.15.95 3 1.7 3 6.1 3.9 2.75.6 5.05 2.45 2.05 1.7 2.4 3.2.5 1.8.4 5.6l1.55.1V11.4"/><path d="M31.95 0q-1.45 6.15-6.9 7.2-3.45.65-5.8 2.5-2.1 1.7-2.7 1.75l-.15-.05v9.95l1.55-.05q-.1-3.85.35-5.65.4-1.5 2.45-3.15 2.3-1.9 5.05-2.45 4.45-.95 6.1-3.95.95-1.8.95-3l-.9-3.1"/></g><path fill="none" stroke="#000" stroke-linecap="round" stroke-linejoin="round" d="M-13.099 11.7q1.4 10.7 17.5 10.7 14.45 0 16.45-10.5.95-5.25-.95-10.5m-33 10.3q-.7-5.4 1.85-10.75"/><path d="M5.75 2.85V2.6q0-.35-.2-1.15Q5.35.9 4.6.4 3.9 0 2.85 0q-.75 0-1.4.25Q.8.6.5 1q-.35.45-.45 1L0 3.5q.05 1.1.25 1.85.25.7.9 1.05.7.4 1.75.4 1 0 1.75-.45.7-.55.9-1.1.2-.55.2-1.25v-.05H3.3L3.25 5q-.15.2-.35.2-.35 0-.4-.2V1.8q.05-.2.4-.2.3 0 .35.15l.05.45v.65h2.45" style="filter:url(#h)" transform="translate(9.35 12.45)"/><path fill="none" stroke="#000" stroke-linecap="round" stroke-linejoin="round" d="M0 1.25.05.1 2.8 0l.15 1.25" style="filter:url(#i)" transform="translate(2.75 10.8)"/><path fill="red" d="M2.25 0H0v2.5l2.25.1V0" style="filter:url(#j)" transform="translate(3.05 11.15)"/><animate attributeName="display" repeatCount="indefinite" dur="4.95s" keyTimes="0;0.667;0.677;1" values="none;inline;none;none"/></g></svg>

<?xml version="1.0" encoding="UTF-8" standalone="no"?>
<svg
   height="82"
   width="84.85"
   version="1.1"
   id="svg15445"
   sodipodi:docname="383.svg"
   inkscape:version="1.1.2 (0a00cf5339, 2022-02-04, custom)"
   xmlns:inkscape="http://www.inkscape.org/namespaces/inkscape"
   xmlns:sodipodi="http://sodipodi.sourceforge.net/DTD/sodipodi-0.dtd"
   xmlns:xlink="http://www.w3.org/1999/xlink"
   xmlns="http://www.w3.org/2000/svg"
   xmlns:svg="http://www.w3.org/2000/svg">
  <sodipodi:namedview
     id="namedview15447"
     pagecolor="#505050"
     bordercolor="#eeeeee"
     borderopacity="1"
     inkscape:pageshadow="0"
     inkscape:pageopacity="0"
     inkscape:pagecheckerboard="0"
     showgrid="false"
     inkscape:current-layer="svg15445" />
  <defs
     id="defs15443">
    <use
       height="15.95"
       width="42.15"
       xlink:href="#n"
       id="a" />
    <use
       height="11.2"
       width="41.5"
       xlink:href="#o"
       id="b" />
    <use
       height="16.95"
       width="43.15"
       xlink:href="#p"
       id="c" />
    <use
       height="4.9"
       width="42.6"
       xlink:href="#q"
       id="d" />
    <use
       height="38"
       width="32.05"
       xlink:href="#r"
       id="e" />
    <use
       height="21.6"
       width="32.65"
       xlink:href="#s"
       id="f" />
    <use
       height="21.85"
       width="34.75"
       xlink:href="#t"
       id="g" />
    <use
       height="7.75"
       width="32.95"
       xlink:href="#u"
       id="h" />
    <use
       height="21.35"
       width="32.85"
       xlink:href="#v"
       id="i" />
    <use
       height="22.45"
       width="35.4"
       xlink:href="#w"
       id="j" />
    <use
       fill="#fff"
       height="6.3"
       transform="translate(.3 5.8) scale(.0049)"
       width="6.1"
       xlink:href="#x"
       id="B" />
    <use
       fill="#fff"
       height="9.65"
       transform="translate(.4 8.55) scale(.0078)"
       width="11"
       xlink:href="#y"
       id="C" />
    <use
       height="2.25"
       width="3.95"
       xlink:href="#z"
       id="l" />
    <use
       height="2.6"
       width="2.25"
       xlink:href="#A"
       id="m" />
    <path
       d="M20.95 0q20.95 0 21.2 3.8.2 2.8-5.05 6.9-6.65 5.25-16.25 5.25-9.55 0-15.9-4.75Q.15 7.55 0 4.8q-.1-1.7 5.9-3.2Q12.35 0 20.95 0"
       fill="#fff"
       fill-rule="evenodd"
       id="n" />
    <path
       d="M38.5 5.65q-3.5 4.65-15.8 5.4-12.35.75-17.35-2.65Q.35 5 0 2.1l2.95.9 2.95.35 13.8.5 15.65-1.5 2.7-.75L41.4 0q.6.95-2.9 5.65"
       fill-rule="evenodd"
       id="o" />
    <path
       d="M20.95 0q20.95 0 21.2 3.8.2 2.8-5.05 6.9-6.65 5.25-16.25 5.25-9.55 0-15.9-4.75Q.15 7.55 0 4.8q-.1-1.7 5.9-3.2Q12.35 0 20.95 0Z"
       fill="none"
       stroke="#000"
       stroke-linecap="round"
       stroke-linejoin="round"
       transform="translate(.5 .5)"
       id="p" />
    <path
       d="M0 1.6q1.2 1.25 9.2 1.75 12.95.8 17.15.4Q41.45 2.25 41.6 0"
       fill="none"
       stroke="#1a0000"
       stroke-linecap="round"
       stroke-linejoin="round"
       transform="translate(.5 .5)"
       id="q" />
    <path
       d="M27.35 7.4q2.15 4.15 3.55 8.75 1.45 4.7 1.15 9.5-.35 4.95-4.2 8.1-3.8 3.2-8.75 4.05l-2.6.2q-3.6 0-7.05-1.15-4.65-1.6-7.1-5.5Q-.2 27.4.05 23q.2-4.4 2-9.3Q3.85 8.75 7 5.05 10.1 1.3 14.7.1l1.8-.1q1.9.05 3.7.8 4.75 2.05 7.15 6.6"
       fill="#fff"
       fill-rule="evenodd"
       transform="translate(-.05)"
       id="r" />
    <path
       d="M31.9 20.6q-.3-2.25-1-4.45-1.4-4.6-3.55-8.75-2.4-4.55-7.15-6.6-2.65-1.1-5.5-.7Q10.1 1.3 7 5.05q-3.15 3.7-4.95 8.65Q.7 17.3.25 20.6"
       fill="none"
       stroke="#000"
       stroke-linecap="round"
       stroke-linejoin="round"
       transform="translate(.25 .5)"
       id="s" />
    <path
       d="M26.1 7.5q7.45-1.85 7.35-7.1 3.1 11.3-1.15 16.55-3.95 4.9-14.2 4.9-6.2 0-11.05-2.25Q2.3 17.45.8 14.1-1.35 9.15 2.35 0 2 1.55 3.4 4.3 4.75 7 9.05 7.8q4.25.75 7 3.55l2.4 2.75 2.4-3.85q1.3-1.15 5.4-2.75h-.15"
       fill-rule="evenodd"
       id="t" />
    <path
       d="M2 0Q-.55 5.35.15 10.75q1.4 10.7 17.5 10.7 14.45 0 16.45-10.5.95-5.25-.95-10.5"
       fill="none"
       stroke="#000"
       stroke-linecap="round"
       stroke-linejoin="round"
       transform="translate(.5 .5)"
       id="w" />
    <path
       d="M592.5-678H39l-8 159h19q3.5-46 22-73t44.5-36.5q20-7 67.5-7h81.5v518q0 57-11 73-18 26-61 26h-24V0H457v-18.5h-23.5q-39.5 0-58.5-21-13.5-15.5-13.5-78v-518H457q42 0 68 14 25.5 13.5 41 42.5 9.5 18 15 60h19l-7.5-159"
       fill-rule="evenodd"
       id="x" />
    <path
       d="M.5-705q-10 14.5-12 30-1.5 16-2.5 24.5-1 9-1 15 0 49 24.5 67.5 25 19 82 19l70 2v498.5Q161.5-32 174-19q13 12.5 33 19 20 6 31.5 8 12 2 28 2 87.5 0 111-9.5 23.5-10 35.5-24 12.5-13.5 12.5-28V-549h129q31.5 0 52-22.5T627-635q1-4 1-12.5 0-12-1-17.5-1-5-10.5-38.5-10-34-46.5-34H41.5q-7 0-19 8.5-12 9-22 24"
       fill-rule="evenodd"
       id="y" />
    <path
       d="M0 1.25.05.1 2.8 0l.15 1.25"
       fill="none"
       stroke="#1a0000"
       stroke-linecap="round"
       stroke-linejoin="round"
       transform="translate(.5 .5)"
       id="z" />
    <path
       d="M2.25 0v2.6L0 2.5V0h2.25"
       fill="#fff"
       fill-rule="evenodd"
       id="A" />
    <g
       id="u"
       fill-rule="evenodd">
      <path
         d="M0 0q7.5 4.5 17.4 4.5 9.85 0 15.55-4.3-.6 1.7-1.45 2.65-3.95 4.9-14.2 4.9-6.2 0-11.05-2.25Q1.5 3.35 0 0"
         id="path15428" />
      <path
         d="M25.5 4.1Q19.9 6 16 6q-3.85 0-7.35-2.25l.25.15q2 .6 4-.05l2.3-1.25q1.15-.85 1.95-.85.75 0 2.1.9 1.45 1 2.5 1.2l3.75.25"
         id="path15430" />
    </g>
    <g
       id="v"
       fill-rule="evenodd">
      <path
         d="M13.55 9.7q2.15 1.7 2.75 1.7h.15v9.95l-1.55-.1q.1-3.8-.4-5.6-.35-1.5-2.4-3.2Q9.8 10.6 7.05 10q-4.4-.9-6.1-3.9Q0 4.25 0 3.1L.85 0q1.5 6.1 6.9 7.15 3.45.7 5.8 2.55"
         id="path15433" />
      <path
         d="m31.95 0 .9 3.1q0 1.2-.95 3-1.65 3-6.1 3.95-2.75.55-5.05 2.45-2.05 1.65-2.45 3.15-.45 1.8-.35 5.65l-1.55.05V11.4l.15.05q.6-.05 2.7-1.75 2.35-1.85 5.8-2.5 5.45-1.05 6.9-7.2"
         id="path15435" />
    </g>
    <g
       id="k"
       transform="translate(-.95 33.05)">
      <use
         height="6.3"
         transform="translate(2.25 -33.05)"
         width="6.1"
         xlink:href="#B"
         id="use15438" />
      <use
         height="9.65"
         transform="translate(.95 -.9)"
         width="11"
         xlink:href="#C"
         id="use15440" />
    </g>
    <filter
       id="filter193"
       filterUnits="objectBoundingBox"
       width="1"
       height="1"
       x="0"
       y="0">
      <feColorMatrix
         type="matrix"
         in="SourceGraphic"
         values="0 0 0 0 0.349 0 0 0 0 0 0 0 0 0 0 0 0 0 1 0"
         result="colorTrans"
         id="feColorMatrix1397" />
    </filter>
    <filter
       id="filter194"
       filterUnits="objectBoundingBox"
       width="1"
       height="1"
       x="0"
       y="0">
      <feColorMatrix
         type="matrix"
         in="SourceGraphic"
         values="0 0 0 0 0.102 0 0 0 0 0 0 0 0 0 0 0 0 0 1 0"
         result="colorTrans"
         id="feColorMatrix1400" />
    </filter>
    <filter
       id="filter195"
       filterUnits="objectBoundingBox"
       width="1.0240385"
       height="1.2579153"
       x="-0.012019231"
       y="-0.12875536">
      <feColorMatrix
         type="matrix"
         in="SourceGraphic"
         values="0 0 0 0 0.102 0 0 0 0 0 0 0 0 0 0 0 0 0 1 0"
         result="colorTrans"
         id="feColorMatrix1403" />
    </filter>
    <filter
       id="filter196"
       filterUnits="objectBoundingBox"
       width="1"
       height="1"
       x="0"
       y="0">
      <feColorMatrix
         type="matrix"
         in="SourceGraphic"
         values="0 0 0 0 1 0 0 0 0 1 0 0 0 0 1 0 0 0 1 0"
         result="colorTrans"
         id="feColorMatrix1406" />
    </filter>
    <filter
       id="filter197"
       filterUnits="objectBoundingBox"
       width="1"
       height="1"
       x="0"
       y="0">
      <feColorMatrix
         type="matrix"
         in="SourceGraphic"
         values="0 0 0 0 0.349 0 0 0 0 0 0 0 0 0 0 0 0 0 1 0"
         result="colorTrans"
         id="feColorMatrix1409" />
    </filter>
    <filter
       id="filter198"
       filterUnits="objectBoundingBox"
       width="1"
       height="1"
       x="0"
       y="0">
      <feColorMatrix
         type="matrix"
         in="SourceGraphic"
         values="0 0 0 0 0.184 0 0 0 0 0 0 0 0 0 0 0 0 0 1 0"
         result="colorTrans"
         id="feColorMatrix1412" />
    </filter>
    <filter
       id="filter199"
       filterUnits="objectBoundingBox"
       width="1"
       height="1"
       x="0"
       y="0">
      <feColorMatrix
         type="matrix"
         in="SourceGraphic"
         values="0 0 0 0 0.102 0 0 0 0 0 0 0 0 0 0 0 0 0 1 0"
         result="colorTrans"
         id="feColorMatrix1415" />
    </filter>
    <filter
       id="filter200"
       filterUnits="objectBoundingBox"
       width="1"
       height="1"
       x="0"
       y="0">
      <feColorMatrix
         type="matrix"
         in="SourceGraphic"
         values="0 0 0 0 0 0 0 0 0 0 0 0 0 0 0 0 0 0 1 0"
         result="colorTrans"
         id="feColorMatrix1418" />
    </filter>
    <filter
       id="filter201"
       filterUnits="objectBoundingBox"
       width="1.3389831"
       height="1.7999987"
       x="-0.16949153"
       y="-0.39999869">
      <feColorMatrix
         type="matrix"
         in="SourceGraphic"
         values="0 0 0 0 0.102 0 0 0 0 0 0 0 0 0 0 0 0 0 1 0"
         result="colorTrans"
         id="feColorMatrix1421" />
    </filter>
    <filter
       id="filter202"
       filterUnits="objectBoundingBox"
       width="1"
       height="1"
       x="0"
       y="0">
      <feColorMatrix
         type="matrix"
         in="SourceGraphic"
         values="0 0 0 0 0.349 0 0 0 0 0 0 0 0 0 0 0 0 0 1 0"
         result="colorTrans"
         id="feColorMatrix1424" />
    </filter>
  </defs>
  <g
     style="display:inline"
     id="g3734"
     transform="translate(37.4,42.25)">
    <g
       id="use3708"
       style="filter:url(#filter193)"
       transform="translate(-16.749,-2.899)">
      <path
         fill="#ff0000"
         d="m 20.85,15.95 q 9.6,0 16.25,-5.25 Q 42.35,6.6 42.15,3.8 41.9,0 20.95,0 12.35,0 5.9,1.6 -0.1,3.1 0,4.8 q 0.15,2.75 4.95,6.4 6.35,4.75 15.9,4.75"
         id="path15692" />
    </g>
    <g
       id="use3710"
       style="filter:url(#filter194)"
       transform="translate(-16.249,0.25)">
      <path
         fill="#000000"
         d="M 19.7,3.85 5.9,3.35 2.95,3 0,2.1 q 0.35,2.9 5.35,6.3 5,3.4 17.35,2.65 Q 35,10.3 38.5,5.65 42,0.95 41.4,0 l -3.35,1.6 -2.7,0.75 Q 29.85,3.1 19.7,3.85"
         id="path15688" />
    </g>
    <g
       id="use3712"
       transform="translate(-16.749,-2.899)">
      <path
         fill="none"
         stroke="#000000"
         stroke-linecap="round"
         stroke-linejoin="round"
         d="m 20.85,15.95 q 9.6,0 16.25,-5.25 Q 42.35,6.6 42.15,3.8 41.9,0 20.95,0 12.35,0 5.9,1.6 -0.1,3.1 0,4.8 q 0.15,2.75 4.95,6.4 6.35,4.75 15.9,4.75"
         id="path15684" />
    </g>
    <g
       id="use3714"
       style="filter:url(#filter195)"
       transform="translate(-16.749,0.25)">
      <path
         fill="none"
         stroke="#000000"
         stroke-linecap="round"
         stroke-linejoin="round"
         d="M 0,1.6 Q 1.2,2.85 9.2,3.35 22.15,4.15 26.35,3.75 41.45,2.25 41.6,0"
         id="path15680" />
    </g>
    <g
       id="use3716"
       style="filter:url(#filter196)"
       transform="translate(-11.949,-17.399)">
      <path
         fill="#ffffff"
         d="M 30.9,16.15 Q 29.5,11.55 27.35,7.4 24.95,2.85 20.2,0.8 18.396,0.051 16.5,0 15.61,-0.028 14.7,0.1 10.098,1.3 6.975,5.025 3.854,8.753 2.05,13.675 0.239,18.598 0.025,23 q -0.207,4.398 2.3,8.325 2.493,3.927 7.125,5.5 3.426,1.162 7.05,1.15 1.288,-0.018 2.6,-0.175 4.95,-0.85 8.75,-4.05 3.85,-3.15 4.2,-8.1 0.3,-4.8 -1.15,-9.5"
         id="path15700" />
    </g>
    <g
       id="use3718"
       transform="translate(-11.949,-17.399)">
      <path
         fill="none"
         stroke="#000000"
         stroke-linecap="round"
         stroke-linejoin="round"
         d="M 2.05,13.675 Q 0.725,17.277 0.25,20.6 m 1.8,-6.925 Q 3.854,8.753 6.975,5.025 10.098,1.3 14.7,0.1 q 2.85,-0.4 5.5,0.7 4.75,2.05 7.15,6.6 2.15,4.15 3.55,8.75 0.683,2.214 0.975,4.45"
         id="path15696" />
    </g>
    <g
       id="use3720"
       style="filter:url(#filter197)"
       transform="translate(-13.699,0.55)">
      <path
         fill="#ff0000"
         d="m 33.45,0.4 q 0.1,5.25 -7.35,7.1 h 0.15 q -4.1,1.6 -5.4,2.75 l -2.4,3.85 Q 17.3,12.55 16.05,11.35 13.3,8.55 9.05,7.8 4.75,7 3.4,4.3 2,1.55 2.35,0 -1.35,9.15 0.8,14.1 q 1.5,3.35 6.25,5.5 4.85,2.25 11.05,2.25 10.25,0 14.2,-4.9 4.25,-5.25 1.15,-16.55"
         id="path15676" />
    </g>
    <g
       id="use3722"
       style="filter:url(#filter198)"
       transform="translate(-12.899,14.65)">
      <path
         fill="#b50000"
         d="M 0,0 Q 1.5,3.35 6.25,5.5 11.1,7.75 17.3,7.75 27.55,7.75 31.5,2.85 32.35,1.9 32.95,0.2 27.25,4.5 17.4,4.5 7.5,4.5 0,0"
         id="path15670" />
      <path
         fill="#b50000"
         d="m 25.5,4.1 q -1.6,0.15 -3.75,-0.25 -1.05,-0.2 -2.5,-1.2 -1.35,-0.9 -2.1,-0.9 -0.8,0 -1.95,0.85 -1.35,0.95 -2.3,1.25 -2,0.65 -4,0.05 L 8.65,3.75 Q 12.15,6 16,6 19.9,6 25.5,4.1"
         id="path15672" />
    </g>
    <g
       id="use3724"
       style="filter:url(#filter199)"
       transform="translate(-12.249,0.55)">
      <path
         fill="#3b0000"
         d="M 16.45,11.4 H 16.3 Q 15.7,11.4 13.55,9.7 11.2,7.85 7.75,7.15 2.35,6.1 0.85,0 L 0,3.1 q 0,1.15 0.95,3 1.7,3 6.1,3.9 2.75,0.6 5.05,2.45 2.05,1.7 2.4,3.2 0.5,1.8 0.4,5.6 l 1.55,0.1 V 11.4"
         id="path15664" />
      <path
         fill="#3b0000"
         d="m 31.95,0 q -1.45,6.15 -6.9,7.2 -3.45,0.65 -5.8,2.5 -2.1,1.7 -2.7,1.75 L 16.4,11.4 v 9.95 l 1.55,-0.05 q -0.1,-3.85 0.35,-5.65 0.4,-1.5 2.45,-3.15 2.3,-1.9 5.05,-2.45 4.45,-0.95 6.1,-3.95 0.95,-1.8 0.95,-3 L 31.95,0"
         id="path15666" />
    </g>
    <g
       id="use3726"
       transform="translate(-13.249,0.95)">
      <path
         fill="none"
         stroke="#000000"
         stroke-linecap="round"
         stroke-linejoin="round"
         d="m 0.15,10.75 q 1.4,10.7 17.5,10.7 14.45,0 16.45,-10.5 0.95,-5.25 -0.95,-10.5 m -33,10.3 Q -0.55,5.35 2,0"
         id="path15660" />
    </g>
    <g
       id="use3728"
       style="filter:url(#filter200)"
       transform="translate(9.35,12.45)">
      <path
         fill="#000000"
         d="M 5.75,2.85 V 2.6 Q 5.75,2.25 5.55,1.45 5.35,0.9 4.6,0.4 3.9,0 2.85,0 2.1,0 1.45,0.25 0.8,0.6 0.5,1 0.15,1.45 0.05,2 L 0,3.5 q 0.05,1.1 0.25,1.85 0.25,0.7 0.9,1.05 0.7,0.4 1.75,0.4 1,0 1.75,-0.45 Q 5.35,5.8 5.55,5.25 5.75,4.7 5.75,4 V 3.95 H 3.3 L 3.25,5 Q 3.1,5.2 2.9,5.2 2.55,5.2 2.5,5 V 1.8 Q 2.55,1.6 2.9,1.6 3.2,1.6 3.25,1.75 L 3.3,2.2 v 0.65 h 2.45"
         id="path15656" />
    </g>
    <g
       id="use3730"
       style="filter:url(#filter201)"
       transform="translate(2.75,10.8)">
      <path
         fill="none"
         stroke="#000000"
         stroke-linecap="round"
         stroke-linejoin="round"
         d="M 0,1.25 0.05,0.1 2.8,0 2.95,1.25"
         id="path15652" />
    </g>
    <g
       id="use3732"
       style="filter:url(#filter202)"
       transform="translate(3.05,11.15)">
      <path
         fill="#ff0000"
         d="M 2.25,0 H 0 V 2.5 L 2.25,2.6 V 0"
         id="path15648" />
    </g>
    <animate
       attributeName="display"
       repeatCount="indefinite"
       dur="4.95s"
       keyTimes="0;0.667;0.677;1"
       values="none;inline;none;none" />
  </g>
</svg>
